images/Cli_HEA.svg

<?xml version="1.0" encoding="UTF-8" standalone="no"?><!DOCTYPE svg PUBLIC "-//W3C//DTD SVG 1.1//EN" "http://www.w3.org/Graphics/SVG/1.1/DTD/svg11.dtd"><svg width="100%" height="100%" viewBox="0 0 1446 400" version="1.1" xmlns="http://www.w3.org/2000/svg" xmlns:xlink="http://www.w3.org/1999/xlink" xml:space="preserve" xmlns:serif="http://www.serif.com/" style="fill-rule:evenodd;clip-rule:evenodd;stroke-linejoin:round;stroke-miterlimit:2;"><g id="Layer-1" serif:id="Layer 1"><g id="g954"><path id="path2520" d="M463.562,184.752l0,0.001c0.001,61.397 50.524,111.919 111.921,111.919l107.336,0c2.532,0 4.585,-2.053 4.585,-4.585l0,-107.334c0.001,-61.394 -50.514,-111.915 -111.907,-111.923l-0.013,0c-61.398,0 -111.922,50.524 -111.922,111.922Zm111.934,-80.116c43.944,0.004 80.102,36.165 80.102,80.109l0,80.109l-80.115,-0c-43.941,-0.004 -80.098,-36.16 -80.102,-80.101l0,-0.008c0,-43.947 36.162,-80.109 80.109,-80.109l0.006,-0Zm10.922,90.919l34.188,-0c0.552,-0 1,-0.448 1,-1l0,-19.607c0,-0.552 -0.448,-1 -1,-1l-34.188,-0l0,-34.713c0,-0.552 -0.448,-1 -1,-1l-19.782,-0c-0.552,-0 -1,0.448 -1,1l0,34.713l-33.925,-0c-0.552,-0 -1,0.448 -1,1l0,19.607c0,0.552 0.448,1 1,1l33.925,-0l0,34.713c0,0.552 0.448,1 1,1l19.782,-0c0.552,-0 1,-0.448 1,-1l0,-34.713Z" style="fill:#b2b2b2;fill-rule:nonzero;"/><path id="path889" d="M0.816,15.833l-0,266.128c-0,8.728 7.068,15.799 15.8,15.799c8.791,0 15.598,-7.012 15.598,-15.799l0,-91.475c0,-30.885 21.205,-60.92 43.717,-75.804c8.777,-5.791 18.942,-9.181 29.124,-9.181c40.541,0 50.579,38.877 50.58,80.322l-0.202,95.784c-0.335,10.449 7.807,15.749 15.8,15.749c8.066,0 15.598,-5.231 15.598,-15.395c0,0.017 0.202,-96.122 0.202,-96.122c0,-60.383 -22.686,-111.94 -82.18,-111.94c-17.013,0 -32.481,5.529 -46.136,14.483c-10.241,6.706 -18.994,15.041 -26.503,24.525l0,-96.73c0.335,-10.522 -7.549,-15.739 -15.598,-15.739c-8.007,0 -15.8,5.251 -15.8,15.395Z" style="fill:#b2b2b2;fill-rule:nonzero;"/><path id="path892" d="M331.573,299.935l0.058,0.057c32.958,0 65.256,-15.072 86.209,-40.61c2.058,-2.481 3.661,-6.661 3.661,-9.999c0,-8.793 -6.807,-15.8 -15.598,-15.8c-4.137,0 -9.826,2.618 -12.417,5.891c-14.864,18.131 -38.556,29.119 -62.058,29.119c-41.156,0 -73.438,-31.212 -80.264,-69.399l161.43,-0.245c8.123,0 12.358,-4.2 14.499,-10.516c1.258,-3.712 1.492,-8.601 1.492,-13.381c0,-56.92 -46.599,-102.622 -102.419,-102.622c-60.528,0 -107.68,52.279 -107.68,111.931c0,62.932 49.946,115.542 113.087,115.574Zm65.628,-124.195l0.007,0l-0.007,-0.008l-0,0.008Zm-0.436,-8.109l-145.185,0.23c7.176,-35.008 36.484,-63.906 74.384,-63.906c36.317,0 66.919,27.743 70.801,63.676Z" style="fill:#b2b2b2;fill-rule:nonzero;"/><path id="path895" d="M738.182,0.446c-8.73,0 -15.8,7.07 -15.8,15.8l0,264.913c0,8.734 7.071,15.802 15.8,15.802c8.791,0 15.598,-7.009 15.598,-15.802l0,-264.913c0,-8.789 -6.807,-15.8 -15.598,-15.8Z" style="fill:#b2b2b2;fill-rule:nonzero;"/><path id="path898" d="M884.366,297.508l0.047,0.058c14.431,0 27.488,-5.519 37.5,-13.196c3.309,-2.519 6.431,-8.386 6.431,-12.523c0,-8.728 -7.068,-15.8 -15.8,-15.8c-2.761,0 -6.763,1.389 -9.13,2.956l-0.231,0.152l-0.22,0.168c-5.517,4.219 -12.015,6.63 -19.966,6.63c-5.09,0 -8.966,-1.245 -11.682,-3.887c-4.77,-4.64 -6.113,-12.481 -6.113,-21.801l-0.059,0.059l0.036,-0.116l0.021,-0.177l0.002,-0.002l0.382,-134.59l34.615,0c8.791,0 15.598,-7.007 15.598,-15.8c0,-8.849 -6.745,-15.597 -15.598,-15.597l-34.39,0l0,-44.306c0,-8.789 -6.806,-15.8 -15.597,-15.8c-8.732,0 -15.801,7.07 -15.801,15.8l0,44.306l-33.377,0c-8.732,0 -15.801,7.07 -15.801,15.8c0,8.793 7.01,15.597 15.801,15.597l33.152,0l-0.382,134.555l0,1.439c0,16.339 4.407,30.085 12.605,39.83c8.511,10.116 21.126,16.235 37.957,16.245Zm-0.005,-0.006c-0.346,-0.428 -2.36,-2.91 -4.288,-5.057c-1.928,-2.147 -3.77,-3.958 -3.77,-3.044c0,7.024 7.362,8.024 8.058,8.101Z" style="fill:#b2b2b2;fill-rule:nonzero;"/><path id="path901" d="M1443.12,95.652c0.75,-1.818 1.23,-4.536 1.23,-6.148c-0,-8.849 -6.75,-15.597 -15.6,-15.597c-6.26,0 -12.51,4.583 -14.63,9.987c-0.95,2.377 -48.18,120.182 -66.28,165.345l-77.44,-165.889c-2.18,-4.983 -8.45,-9.443 -14.28,-9.443c-8.73,0 -15.8,7.07 -15.8,15.8c-0,2.085 0.77,5.006 1.6,6.735c-0.01,-0.018 89.76,192.656 89.76,192.656l-12.66,31.741c-8.96,22.224 -22.11,47.326 -50.96,47.326c-8.79,0 -15.6,7.009 -15.6,15.802c-0,8.851 6.75,15.598 15.6,15.598c43.19,0 67.12,-35.316 79.97,-66.99l-0,-0.013c0.01,-0.014 95.12,-237 95.12,-237l-0.03,0.09Z" style="fill:#b2b2b2;fill-rule:nonzero;"/><path id="path904" d="M959.797,15.833l0,266.128c0,8.728 7.068,15.799 15.8,15.799c8.791,0 15.598,-7.012 15.598,-15.799l0,-91.475c0,-30.885 21.205,-60.92 43.715,-75.804c8.78,-5.791 18.95,-9.181 29.13,-9.181c40.54,0 50.58,38.877 50.58,80.322l-0.21,95.78c-0.34,10.449 7.8,15.753 15.8,15.753c8.07,0 15.6,-5.231 15.6,-15.395c0,0.018 0.21,-96.122 0.21,-96.122c0,-60.383 -22.69,-111.94 -82.19,-111.94c-17.01,0 -32.47,5.529 -46.13,14.483c-10.24,6.706 -18.996,15.041 -26.505,24.525l0,-96.726c0.345,-10.522 -7.548,-15.743 -15.598,-15.743c-8.007,0 -15.8,5.251 -15.8,15.395Z" style="fill:#b2b2b2;fill-rule:nonzero;"/><path id="path907" d="M1193.27,0.446c-8.73,0 -15.8,7.07 -15.8,15.8l0,264.913c0,8.733 7.07,15.802 15.8,15.802c8.79,0 15.6,-7.009 15.6,-15.802l0,-264.913c0,-8.789 -6.81,-15.8 -15.6,-15.8Z" style="fill:#b2b2b2;fill-rule:nonzero;"/></g></g></svg>

<?xml version="1.0" encoding="UTF-8" standalone="no"?>
<!DOCTYPE svg PUBLIC "-//W3C//DTD SVG 1.1//EN" "http://www.w3.org/Graphics/SVG/1.1/DTD/svg11.dtd">
<svg width="100%" height="100%" viewBox="0 0 1446 400" version="1.1" xmlns="http://www.w3.org/2000/svg" xmlns:xlink="http://www.w3.org/1999/xlink" xml:space="preserve" xmlns:serif="http://www.serif.com/" style="fill-rule:evenodd;clip-rule:evenodd;stroke-linejoin:round;stroke-miterlimit:2;">
    <g id="Layer-1" serif:id="Layer 1">
        <g id="g954">
            <path id="path2520" d="M463.562,184.752L463.562,184.753L463.562,184.753C463.563,246.15 514.086,296.672 575.483,296.672L682.819,296.672C685.351,296.672 687.404,294.619 687.404,292.087L687.404,184.753C687.405,123.359 636.89,72.838 575.497,72.83L575.484,72.83C514.086,72.83 463.562,123.354 463.562,184.752ZM575.496,104.636C619.44,104.64 655.598,140.801 655.598,184.745L655.598,264.854C655.598,264.854 575.483,264.854 575.483,264.854C531.542,264.85 495.385,228.694 495.381,184.753C495.381,184.753 495.381,184.745 495.381,184.745C495.381,140.798 531.543,104.636 575.49,104.636L575.496,104.636ZM586.418,195.555L620.606,195.555C621.158,195.555 621.606,195.107 621.606,194.555L621.606,174.948C621.606,174.396 621.158,173.948 620.606,173.948L586.418,173.948C586.418,173.948 586.418,139.235 586.418,139.235C586.418,138.683 585.97,138.235 585.418,138.235L565.636,138.235C565.084,138.235 564.636,138.683 564.636,139.235L564.636,173.948C564.636,173.948 530.711,173.948 530.711,173.948C530.159,173.948 529.711,174.396 529.711,174.948L529.711,194.555C529.711,195.107 530.159,195.555 530.711,195.555L564.636,195.555C564.636,195.555 564.636,230.268 564.636,230.268C564.636,230.82 565.084,231.268 565.636,231.268L585.418,231.268C585.97,231.268 586.418,230.82 586.418,230.268L586.418,195.555Z" style="fill:rgb(204,204,204);fill-rule:nonzero;"/>
            <path id="path889" d="M0.816,15.833L0.816,281.961C0.816,290.689 7.884,297.76 16.616,297.76C25.407,297.76 32.214,290.748 32.214,281.961L32.214,190.486C32.214,159.601 53.419,129.566 75.931,114.682C84.708,108.891 94.873,105.501 105.055,105.501C145.596,105.501 155.634,144.378 155.635,185.823C155.635,185.823 155.433,281.607 155.433,281.607C155.098,292.056 163.24,297.356 171.233,297.356C179.299,297.356 186.831,292.125 186.831,281.961C186.831,281.978 187.033,185.839 187.033,185.839C187.033,125.456 164.347,73.899 104.853,73.899C87.84,73.899 72.372,79.428 58.717,88.382C48.476,95.088 39.723,103.423 32.214,112.907C32.214,112.907 32.214,16.177 32.214,16.177C32.549,5.655 24.665,0.438 16.616,0.438C8.609,0.438 0.816,5.689 0.816,15.833Z" style="fill:rgb(204,204,204);fill-rule:nonzero;"/>
            <path id="path892" d="M331.573,299.935L331.631,299.992C364.589,299.992 396.887,284.92 417.84,259.382C419.898,256.901 421.501,252.721 421.501,249.383C421.501,240.59 414.694,233.583 405.903,233.583C401.766,233.583 396.077,236.201 393.486,239.474C378.622,257.605 354.93,268.593 331.428,268.593C290.272,268.593 257.99,237.381 251.164,199.194C251.164,199.194 412.594,198.949 412.594,198.949C420.717,198.949 424.952,194.749 427.093,188.433C428.351,184.721 428.585,179.832 428.585,175.052C428.585,118.132 381.986,72.43 326.166,72.43C265.638,72.43 218.486,124.709 218.486,184.361C218.486,247.293 268.432,299.903 331.573,299.935ZM397.201,175.74L397.208,175.74L397.201,175.732L397.201,175.74ZM396.765,167.631L251.58,167.861C258.756,132.853 288.064,103.955 325.964,103.955C362.281,103.955 392.883,131.698 396.765,167.631Z" style="fill:rgb(204,204,204);fill-rule:nonzero;"/>
            <path id="path895" d="M738.182,0.446C729.452,0.446 722.382,7.516 722.382,16.246L722.382,281.159C722.382,289.893 729.453,296.961 738.182,296.961C746.973,296.961 753.78,289.952 753.78,281.159L753.78,16.246C753.78,7.457 746.973,0.446 738.182,0.446Z" style="fill:rgb(204,204,204);fill-rule:nonzero;"/>
            <path id="path898" d="M884.366,297.508L884.413,297.566C898.844,297.566 911.901,292.047 921.913,284.37C925.222,281.851 928.344,275.984 928.344,271.847C928.344,263.119 921.276,256.047 912.544,256.047C909.783,256.047 905.781,257.436 903.414,259.003L903.183,259.155L902.963,259.323C897.446,263.542 890.948,265.953 882.997,265.953C877.907,265.953 874.031,264.708 871.315,262.066C866.545,257.426 865.202,249.585 865.202,240.265L865.143,240.324L865.179,240.208L865.2,240.031L865.202,240.029L865.584,105.439C865.584,105.439 900.199,105.439 900.199,105.439C908.99,105.439 915.797,98.432 915.797,89.639C915.797,80.79 909.052,74.042 900.199,74.042L865.809,74.042C865.809,74.042 865.809,29.736 865.809,29.736C865.809,20.947 859.003,13.936 850.212,13.936C841.48,13.936 834.411,21.006 834.411,29.736L834.411,74.042C834.411,74.042 801.034,74.042 801.034,74.042C792.302,74.042 785.233,81.112 785.233,89.842C785.233,98.635 792.243,105.439 801.034,105.439C801.034,105.439 834.186,105.439 834.186,105.439C834.186,105.439 833.804,239.994 833.804,239.994C833.804,240.006 833.804,241.433 833.804,241.433C833.804,257.772 838.211,271.518 846.409,281.263C854.92,291.379 867.535,297.498 884.366,297.508ZM884.361,297.502C884.015,297.074 882.001,294.592 880.073,292.445C878.145,290.298 876.303,288.487 876.303,289.401C876.303,296.425 883.665,297.425 884.361,297.502Z" style="fill:rgb(204,204,204);fill-rule:nonzero;"/>
            <path id="path901" d="M1443.12,95.652C1443.87,93.834 1444.35,91.116 1444.35,89.504C1444.35,80.655 1437.6,73.907 1428.75,73.907C1422.49,73.907 1416.24,78.49 1414.12,83.894C1413.17,86.271 1365.94,204.076 1347.84,249.239C1347.84,249.239 1270.4,83.35 1270.4,83.35C1268.22,78.367 1261.95,73.907 1256.12,73.907C1247.39,73.907 1240.32,80.977 1240.32,89.707C1240.32,91.792 1241.09,94.713 1241.92,96.442C1241.91,96.424 1331.68,289.098 1331.68,289.098C1331.68,289.098 1319.02,320.839 1319.02,320.839C1310.06,343.063 1296.91,368.165 1268.06,368.165C1259.27,368.165 1252.46,375.174 1252.46,383.967C1252.46,392.818 1259.21,399.565 1268.06,399.565C1311.25,399.565 1335.18,364.249 1348.03,332.575L1348.03,332.562C1348.04,332.548 1443.15,95.562 1443.15,95.562L1443.12,95.652Z" style="fill:rgb(204,204,204);fill-rule:nonzero;"/>
            <path id="path904" d="M959.797,15.833L959.797,281.961C959.797,290.689 966.865,297.76 975.597,297.76C984.388,297.76 991.195,290.748 991.195,281.961L991.195,190.486C991.195,159.601 1012.4,129.566 1034.91,114.682C1043.69,108.891 1053.86,105.501 1064.04,105.501C1104.58,105.501 1114.62,144.378 1114.62,185.823C1114.62,185.823 1114.41,281.603 1114.41,281.603C1114.07,292.052 1122.21,297.356 1130.21,297.356C1138.28,297.356 1145.81,292.125 1145.81,281.961C1145.81,281.979 1146.02,185.839 1146.02,185.839C1146.02,125.456 1123.33,73.899 1063.83,73.899C1046.82,73.899 1031.36,79.428 1017.7,88.382C1007.46,95.088 998.704,103.423 991.195,112.907C991.195,112.907 991.195,16.181 991.195,16.181C991.54,5.659 983.647,0.438 975.597,0.438C967.59,0.438 959.797,5.689 959.797,15.833Z" style="fill:rgb(204,204,204);fill-rule:nonzero;"/>
            <path id="path907" d="M1193.27,0.446C1184.54,0.446 1177.47,7.516 1177.47,16.246C1177.47,16.246 1177.47,281.159 1177.47,281.159C1177.47,289.892 1184.54,296.961 1193.27,296.961C1202.06,296.961 1208.87,289.952 1208.87,281.159C1208.87,281.159 1208.87,16.246 1208.87,16.246C1208.87,7.457 1202.06,0.446 1193.27,0.446Z" style="fill:rgb(204,204,204);fill-rule:nonzero;"/>
        </g>
    </g>
</svg>
